!!!!SEGMENT: pl-wtm--1223-fp-3858--001-002_szymanowski-karol--fantaisie-op-14-ii.krn
!!!cenid: 19xx:56
!!!COM: Szymanowski, Karol
!!!COM-rismID: pe30106403
!!!CDT: 1882-1937
!!!CNT: Polish
!!!OPR: Fantaisie op. 14
!!!OTL: II.
!!!OMV: 002
!!!PDT: 1911
!!!AGN: Secular; Fantasy
!!!YEC: Copyright 2022 Narodowy Instytut Fryderyka Chopina (https://polishscores.org)
!!!YEM: License CC-BY-4.0 (https://creativecommons.org/licenses/by/4.0)
!!!SMS-siglum: PL-Wtm
!!!SMS-shelfmark: 1223 fp 3858
!!!SMS-variant:
!!!SMS-altvar:
!!!SMS-shelfwork: 001-002 M
!!!NIFC-rismSourceID: 1001214572
!!!NIFC-rismChildID: 1001214572
!!!NIFC-islandoraID: pl-wtm:82261
!!!URL-pdf-islandora: https://repozytorium.nifc.pl/islandora/object/pl-wtm%3A82261/datastream/PDF/view
!!!URL-scan: https://polish.musicsources.pl/pl/lokalizacje/galeria/druki-muzyczne/18510/6 @EN{Scan on Polish Music Sources Website} @PL{Skany w portalu Dziedzictwo Muzyki Polskiej w otwartym dostępie}
!!!IIIF:
!!!ONB-nifc: UWAGA: II część Fantazji, str. 6-8.
!!!AIN: 1 piano
!!!key: a-
**kern	**kern	**dynam
*part1	*part1	*part1
*staff2	*staff1	*staff1/2
*group1	*group1	*
*ICklav	*ICklav	*
*Ipiano	*Ipiano	*
*I"Piano.	*I"Piano.	*
*I'	*I'	*
*clefF4	*clefG2	*
*k[b-e-a-d-]	*k[b-e-a-d-]	*
*a-:	*a-:	*
*M4/4	*M4/4	*
*met(c)	*met(c)	*
=1	=1	=1
*^	*^	*^
*Xbrackettup	*Xbrackettup	*Xbrackettup	*Xbrackettup	*	*
!!LO:TX:a:B:t=Non troppo Allegro, ma molto passionato e affetuoso.
!	!	!LO:TX:b:i:rj:t=dolce	!	!LO:DY:b	!LO:HP:b=2
(>12AAAn/L	2ryy	8r	8ryy	pp	<
12AAn/	.	.	.	.	.
!	!	!	!	!LO:HP:b	!
.	.	(8ee- 8e-/	[4.cc\	<	.
12E-/J	.	.	.	.	.
*Xtuplet	*	*	*	*	*
12cL 12G-X/)	.	[4ff [<4f^</	.	.	[
(12AA/	.	.	.	.	.
12AAA/J)	.	.	.	.	.
*	*	*tuplet	*Xtuplet	*	*
&(12BBB-/L	4ryy	12ff]L 12f/]	12cc\]	.	<
12BB-/	.	12ee- 12e-/	[6dd-\	.	.
12E-/J	.	12ffJ 12f/)	.	[	.
(<12Gn\L	4d-/&)	4gg 4g^</	4dd-\]	.	[
12F\	.	.	.	.	.
12E-\J)	.	.	.	.	.
=2	=2	=2	=2	=2	=2
(>12AAAn/L	2ryy	8r	8ryy	.	<
12AAn/	.	.	.	.	.
!	!	!	!	!LO:HP:b	!
.	.	(8ee- 8e-/	[4.cc\	<	.
12E-/J	.	.	.	.	.
12cL 12G-X/)	.	[4ff [<4f^</	.	.	[
(12AA/	.	.	.	.	.
12AAA/J)	.	.	.	.	.
*	*	*tuplet	*Xtuplet	*	*
&(12BBB-/L	4ryy	12ff]L 12f/]	12cc\]	.	<
12BB-/	.	12ee- 12e-/	[6dd-\	.	.
12E-/J	.	12ffJ 12f/)	.	[	.
(<12Gn\L	4d-/&)	4gg 4g^</	4dd-\]	.	[
12F\	.	.	.	.	.
12E-\J)	.	.	.	.	.
=3	=3	=3	=3	=3	=3
(>12AAAn/L	2ryy	8r	8ryy	.	<
12AAn/	.	.	.	.	.
!	!	!	!	!LO:HP:b	!
.	.	(8ee- 8e-/	[4.cc\	<	.
12E-/J	.	.	.	.	.
12cL 12G-X/)	.	[4ff [<4f^</	.	.	[
(12AA/	.	.	.	.	.
12AAA/J)	.	.	.	.	.
*	*	*Xtuplet	*Xtuplet	*	*
&(12BBB-/L	4ryy	12ff]L 12f/]	12cc\]	.	<
12BB-/	.	12ee- 12e-/	[6dd-\	.	.
12E-/J	.	12ffJ 12f/)	.	.	.
(<12Gn\L	4d-/&)	8.ggL 8.dd-] 8.g^\	4ryy	[	[
!	!	!LO:TX:b:i:t=rit.	!	!	!
12F\	.	.	.	.	.
12E-\J)	.	.	.	.	.
.	.	16gggJk 16gg\	.	.	.
*v	*v	*	*	*v	*v
*	*v	*v	*
!!LO:LB:g=original
=4	=4	=4
*^	*^	*^
*	*	*8va	*	*	*
!	!	!LO:TX:b:i:t=rit.	!	!LO:HP:b	!LO:HP:b=2
(>12BBBn/L	4ryy	(4.ggg 4.gg^/	(>[4ccc#X\	<	<
!	!	!LO:TX:a:i:t=(espr.)	!	!	!
12BBn/	.	.	.	.	.
12F/J	.	.	.	.	.
*	*	*tuplet	*	*	*
!	!	!	!LO:TUP:b:problem:klamra łukowa	!	!
12c#X/L	([4A-\	.	12ccc#\]	.	[
12dn/	.	.	[6dddn\)	[	.
.	.	8fff#X 8ff#X/	.	.	.
12f#X/J	.	.	.	.	.
8fn/L	8A-\L]	2fffn 2ddd] 2ffn/)	2ryy	.	>
8en/J	8G\J	.	.	.	.
!	!	!LO:TX:b:i:t=riten.	!	!	!
8.e-X/L	8.G-X\L	.	.	.	.
!LO:TX:t=P:problem:n w nawiasie	!	!	!	!	!
16dn/Jk)	16F\Jk)	.	.	.	]
*	*	*X8va	*	*	*
*v	*v	*	*	*	*
*	*v	*v	*	*
=5	=5	=5	=5
*^	*^	*	*
!!LO:TX:a:i:t=a tempo
!	!	!LO:TX:a:i:t=loco	!	!LO:DY:b	!LO:HP:b=2
(>12BBBn/L	2ryy	8r	8ryy	p	<
!	!	!	!	!LO:HP:b	!
12BBn/	.	.	.	<	.
.	.	(8ff 8f/	[4.ddn\	.	.
12F/J	.	.	.	.	.
!LO:TX:t=P:problem:- w nawiasie	!	!	!	!	!
12dnL 12A-X/)	.	[4gg [<4g^</	.	.	[
(12BB/	.	.	.	.	.
12BBB/J)	.	.	.	.	.
*	*	*Xtuplet	*Xtuplet	*	*
&(12CC/L	4ryy	12gg]L 12g/]	12dd\]	.	<
12C/	.	12ff 12f/	[6ee-\	.	.
12F/J	.	12ggJ 12g/)	.	.	.
(<12An\L	4e-/&)	4aan 4an^</	4ee-\]	[[	[
12G\	.	.	.	.	.
12F\J)	.	.	.	.	.
=6	=6	=6	=6	=6	=6
(>12BBBn/L	2ryy	8r	8ryy	.	<
12BBn/	.	.	.	.	.
!	!	!	!	!LO:HP:b	!
.	.	(8ff 8f/	[4.ddn\	<	.
12F/J	.	.	.	.	.
12dnL 12A-X/)	.	[4gg [<4g^</	.	.	[
(12BB/	.	.	.	.	.
12BBB/J)	.	.	.	.	.
(<12CC/L	4ryy	12gg]L 12g/]	12dd\]	.	<
12C/	.	12ff 12f/	[6ee-\	.	.
12F/J)	.	12ggJ 12g/)	.	.	.
(<12An\L	4e-/	4aan 4an^</	4ee-\]	[	[
12G\	.	.	.	.	.
12F\J)	.	.	.	.	.
*	*	*	*	*v	*v
!!LO:LB:g=original
=7	=7	=7	=7	=7
!	!	!	!	!LO:HP:b=2
(>12BBBn/L	2ryy	8r	8ryy	<
12BBn/	.	.	.	.
.	.	(8ff 8f/	[4.ddn\	.
12F/J	.	.	.	.
12dnL 12A-X/)	.	[4gg [<4g^</	.	[
(12BB/	.	.	.	.
12BBB/J)	.	.	.	.
!	!	!	!	!LO:HP:b=2
&(12CC/L	4ryy	12gg]L 12g/]	12dd\]	<
12C/	.	12ff 12f/	[6ee-\	.
12F/J	.	12ggJ 12g/)	.	.
!	!	!LO:TX:b:i:t=rit.	!	!
(<12An\L	4e-/&)	8.aanL 8.ee-] 8.an^/	4ryy	[
12G\	.	.	.	.
12F\J)	.	.	.	.
*	*	*8va	*	*
.	.	16aaaJk 16aa/	.	.
=8	=8	=8	=8	=8
*	*	*	*	*^
!	!	!LO:TX:b:i:t=rit.	!	!LO:HP:b	!LO:HP:b=2
(>12CC#X/L	4ryy	(4.aaan 4.aan^/	[4ddd#X\	<	<
!	!	!LO:TX:a:i:t=(espr.)	!	!	!
12C#X/	.	.	.	.	.
12G/J	.	.	.	.	.
*	*	*tuplet	*	*	*
!	!LO:TX:t=P:problem:- w nawiasie	!	!LO:TUP:b:problem:klamra łukowa	!	!
12d#X/L	[4B-X\	.	(12ddd#\]	.	.
12en/	.	.	[6eeen\)	[	[
.	.	8ggg#X 8gg#X/	.	.	.
12g#X/J	.	.	.	.	.
!	!	!	!	!	!LO:HP:b
8gn/L	8B-\L]	2gggn 2ggn/)	2eee\]	.	>
8f#X/J	8An\J	.	.	.	.
!	!	!LO:TX:b:i:t=rit.	!	!	!
8.fn/L	8.A-X\L	.	.	.	.
16en/Jk)	16G\Jk	.	.	.	]
*v	*v	*	*	*	*
*	*v	*v	*	*
=9	=9	=9	=9
!!LO:TX:a:i:t=poco avviv. dolce e grazioso
!	!	!LO:HP:b	!
!LO:TX:b:i:t=dolcissimo	!	!LO:DY:a=2:t=%s (animato)	!
(12DDn'>/L	8aanL 8ff#X/	pp <	.
12AAn'>/	.	.	.
.	(16gg#XL 16ee#X/	.	.
12Dn'>/J	.	.	.
.	16aaJJ 16ff#'/)	.	.
!	!	!	!LO:HP:b=2
12En'\L	([4fff#X [4dddn~\	[	<
12F#X'\	.	.	.
!	!	!LO:HP:b	!
12Bn'\J	.	>	.
12An'\L	8fff#]L 8ddd\]	.	.
12en'\	.	.	.
.	8fffnJ 8ddd-X\	.	.
12dn'\J	.	.	.
!	!LO:TX:b:i:t=poco rit.	!	!
12bn'\L	8.eeenL 8.cccn\	.	[
12an'\J)	.	.	.
12r	.	.	.
.	16ddd#XJk 16bbn\)	]	.
.	.	.	.
!!LO:LB:g=original
=10	=10	=10	=10
*	*Xtuplet	*	*
(12FF#X'\L	([4ccc#X [4aa#X~>/	.	<
12C#X'\	.	.	.
12F#X'\J	.	.	.
!	!	!LO:HP:a	!
12G#X'\L	12ccc#]L 12aa#/]	>	.
12A#X'\	12ff 12a#X/	.	.
12d#X'\J	12gg#XJ 12bn/	.	[
12c#X'\L	2aa# 2cc#X/)	.	>
!	!LO:TX:b:i:t=rit.	!	!
12f#X'\	.	.	.
12d#'\J	.	.	.
12c#'\L	.	]	.
12A#'\	.	.	.
12F#'\J)	.	.	]
*	*	*v	*v
=11	=11	=11
(12DDn'>/L	8aanL 8ff#X/	<
12AAn'>/	.	.
.	(16gg#XL 16ee#X/	.
12Dn'>/J	.	.
.	16aaJJ 16ff#'/)	.
12En'\L	[4fff#X [4dddn~\	[
12F#X'\	.	.
12Bn'\J	.	.
12An'\L	12fff#]L 12ddd\]	>
12en'\	(12fffn 12ddd-X'\	.
!!LO:TX:a:i:t=poco rit.
12dn'\J	12eeenJ 12cccn'\	.
12gn'\L	12eee-XL 12ccc-X'\	.
12f#X'\J)	12dddn 12bb-X'\	.
.	.	.
12r	12ddd-XJ 12aan'\)	]
=12	=12	=12
!	!	!LO:HP:a
(12FFn'\L	([4cccn [4aa-X~>/	>
12Cn'\	.	.
12Fn'\J	.	.
12Gn'\L	12ccc]L 12aa-/]	.
12A-X'\	12ffn 12a-X/	.
12d-X'\J	12ggnJ 12b-X/	.
12cn'\L	2aa- 2ccn/)	]
12fn'\	.	.
!	!LO:TX:b:i:t=rit.	!
12d-'\J	.	.
12c'\L	.	.
12A-'\	.	.
12F'\J)	.	.
!!LO:LB:g=original
=13	=13	=13
*	*	*^
*tuplet	*	*	*
!LO:TUP:b	!LO:TX:b:i:t=poco cresc.	!LO:HP:b	!LO:HP:b
12D-XL 12DD-X/	8aa-XL 8ff/	<	<
*clefG2	*	*	*
(12A-X/	.	.	.
.	(16ggnL 16een/	.	.
12a-X/J	.	.	.
.	16aa-JJ 16ff'/)	.	.
*Xtuplet	*	*	*
12dd-X\L	[4aaa- [4fff^\	.	.
12ee-X\	.	.	.
12een\J)	.	[	[
!	!	!LO:HP:b	!LO:HP:b
(16ff'\LL	16aaa-]LL 16fff\]	>	>
16gg-X'\	(16gggn 16eeen'\	.	.
16ggn'\	16ggg-X 16eee-X'\	.	.
16aa-X'\JJ)	16fffJJ 16ddd-X'\	.	.
!	!LO:TX:i:b:t=dim. e rit.	!	!
(16cc'\LL	16eeenLL 16ccc'\	.	.
16dd-X'\	16eee-X 16ccc-X'\	.	.
16ddn'\	16dddn 16bb-'\	.	.
16een'\JJ	16ddd-XJJ 16aan'\)	]	]
*	*	*v	*v
=14	=14	=14
12ff'\L)	(>[4ccc [4aa-X^>/	<
*clefF4	*	*
(12FF'\	.	.
12C'\J	.	.
16F'\LL	12ccc]L 12aa-/]	.
16Gn'\	.	.
.	12ff 12a-X/	.
16A-X'\	.	.
.	12ggJ 12b-/	.
16d-'\JJ	.	[[
12c'\L	2aa- 2cc/)	.
12f'\	.	.
12d-'\J	.	.
12c'\L	.	.
12A-'\	.	.
12F'\J)	.	.
!!LO:PB:g=original
=15	=15	=15
12D-L 12DD-/	8aa-L 8ff/	<
*clefG2	*	*
(12A-/	.	.
.	(16ggnL 16een/	.
12a-/J	.	.
.	16aa-JJ 16ff'/)	.
12dd-\L	8bbb-L 8ggg-X^\	[
12ee-\	.	.
.	[8aaa-J [8fff\	.
12een\J)	.	.
(16ff'\LL	16aaa-]LL 16fff\]	>
16gg-X'\	(16gggn 16eeen'\	.
16ggn'\	16ggg-X 16eee-X'\	.
16aa-'\JJ)	16fffJJ 16ddd-'\	.
(16cc'\LL	20eeenLL 20ccc'\	.
.	20eee-X 20ccc-X'\	.
16dd-X'\	.	.
.	20dddn 20bb-'\	.
16ddn'\	.	.
.	20ddd-X [20aan'\	.
16dd#X'\JJ	.	.
.	20ccc-JJ 20aa'\])	]
=16	=16	=16
!	!	!LO:HP:b=2
12een/L)	([4bbn [4gg#X^>/	<
*clefF4	*	*
(12EEn/	.	.
12BBn/J	.	.
16En'\LL	12bb]L 12gg#/]	.
16F#X'\	.	.
.	12een 12g#X/	.
16G#X'\	.	.
.	12ff#XJ 12an/)	.
16c#X'\JJ	.	[
!	!LO:TX:b:i:t=dim. e rit.	!LO:HP:b=2
12Bn'\L	2gg#X 2bn/	>
12en'\	.	.
12c#'\J	.	.
12B'\L	.	.
12G#'\	.	.
12E'\J)	.	]
!!LO:LB:g=original
=17	=17	=17
*	*	*^
!!LO:TX:a:i:t=Con passione, amoroso. (più mosso subito)
!	!	!LO:DY:b:t=%s (subito)	!
(16EE-X\LL	8r	ff	<
16E-X\	.	.	.
16G-X\	(8bb-X [>8gg-X 8b-X/	[	.
16g-X\JJ)	.	.	[
(16DDn\LL	[4ccc-X 4gg-_> [4cc-X/	<	<
16Dn\	.	.	.
16G-\	.	.	.
16g-\JJ)	.	.	[
(16DD-X\LL	12ccc-]L 12gg-] 12cc-/]	.	<
16D-X\	.	.	.
.	12bb- 12gg- 12b-/	.	.
16G-\	.	.	.
.	12ccc-J 12cc-/	.	.
16A-\JJ	.	.	.
*tuplet	*	*	*
!LO:TX:a:i:t=poco rit.	!	!	!
12B-\L	8.ddd-XL 8.bb- 8.dd-X/	.	[
12.e-\	.	.	.
.	16bbb-Jk 16bb-/	.	.
24d-\Jk)	.	[	.
=18	=18	=18	=18
*M3/4	*M3/4	*	*
!	!LO:TX:a:i:t=ten.	!	!
(16DDn/LL	2bbb- 2ggg-X 2bb-\	.	<
16Dn/	.	.	.
16G-X/	.	>	.
16A-X/JJ	.	.	.
*clefG2	*	*	*
16B-X/LL	.	.	[
16dn/	.	.	>
16g-X/	.	.	.
16a-X/JJ	.	.	.
16ddn/LL	4bb- 4b-/)	.	.
!	!LO:TX:b:i:t=rit.	!	!
16a-/	.	.	.
16g-/	.	]	.
16d/JJ)	.	.	]
*clefF4	*	*	*
*	*	*v	*v
=19	=19	=19
*M4/4	*M4/4	*
*met(c)	*met(c)	*
(16EE-\LL	8r	.
16E-\	.	.
16G-X\	(8bb- [>8gg-X 8b-/	<
16g-X\JJ)	.	.
(16DDn\LL	[4ccc-X 4gg-_> [4cc-X/	.
16Dn\	.	.
16G-\	.	.
16g-\JJ)	.	.
(16DD-X\LL	12ccc-]L 12gg-] 12cc-/]	.
16D-X\	.	.
.	12bb- 12gg- 12b-/	.
16G-\	.	.
.	12ccc-J 12cc-/	.
16A-\JJ	.	.
!LO:TX:a:i:t=poco rit.	!	!
12B-\L	8.ddd-L 8.bb- 8.dd-/	.
12.e-\	.	.
.	16bbb-Jk 16bb-/	[
24d-X\Jk)	.	.
!!LO:LB:g=original
=20	=20	=20
*M3/4	*M3/4	*
(16DDn/LL	2bbb- 2ggg-X 2bb-\	.
16Dn/	.	>
16G-X/	.	.
16A-X/JJ	.	.
*clefG2	*	*
16B-X/LL	.	.
16dn/	.	.
16g-X/	.	.
16a-X/JJ	.	.
16ddn/LL	4bb- 4b-/)	]
!	!LO:TX:b:i:t=rit.	!
16a-/	.	.
16g-/	.	.
16d/JJ)	.	.
*clefF4	*	*
=21	=21	=21
*M4/4	*M4/4	*
*Xtuplet	*	*
!!LO:TX:a:i:t=avvivando (poco agit.)
(<12EE-/L	8r	p
12E-/	.	.
!	!LO:TX:t=cre-scen-do:ext=cd:problem:text with extention lines	!
.	(>8bb- [>8gg-X 8b-/	<
12G-X/J	.	.
12g-X\L	[4ccc-X 4gg-_> [4cc-X/	.
12B-\	.	.
12G-\J)	.	.
(<12EEn/L	12ccc-]L 12gg-] 12cc-/]	.
12En/	12bb- [[>12gg- 12b-/	.
12G-/J	12cccnJ 12ccn/	.
12g-\L	4ddd-X 4gg-]] 4dd-X/)	.
12B-\	.	[[
12G-\J)	.	.
=22	=22	=22
(12FF\L	8r	.
12F\	.	.
.	(>8ddd- [8bb- 8dd-/	<
12B-\J	.	.
12b-\L	[4eee- 4bb-_> [4ee-/	.
12d-\	.	.
12B-\J)	.	.
(12GG-X\L	12eee-]L 12bb-] 12ee-/]	.
12G-X\	12ddd- [[12bb- 12dd-/	.
12B-\J	12eee-J 12ee-/	.
!	!LO:TX:b:i:t=rit.	!
12b-\L	4fff-X 4bb-]] 4ff-/)	[
12d-\	.	.
12B-\J)	.	.
!!LO:LB:g=original
=23	=23	=23
*^	*	*^
!!LO:TX:a:i:t=(affetuoso)
!	!	!LO:TX:a:i:t=(veloce)	!LO:DY:b:t=(%s dolce)	!LO:HP:a
8Gn 8GGn/	8ryy	(24ff-X\LL	p<	.
.	.	24bb-\	.	.
.	.	24ddd-\JJ	.	.
*clefG2	*	*	*	*
!LO:TX:b:i:t=marcato la melodia	!	!	!	!
!LO:TX:a:i:t=(ten.)	!	!	!	!
[8b-/	(8d-^\	32eee-\LL	.	.
.	.	32fff-X\	.	.
.	.	32bbb-\	.	.
.	.	32dddd-\JJJ	[	.
4b-/]	4e-^\)	24eeee-\LLL	>	.
.	.	24dddd-\	.	.
.	.	24bbb-\JJ	.	.
.	.	32fff-\LL	.	.
.	.	32eee-\	.	.
.	.	32ddd-\	.	.
.	.	32bb-\JJJ)	]	.
*clefF4	*	*	*	*
*tuplet	*	*	*	*
&(12A- &&(<12AA-/	12ryy	(32ffn\LLL	<	.
.	.	32ccc-X\	.	.
.	.	32ddd-\	.	.
*clefG2	*	*	*	*
!LO:TX:a:i:t=(ten.)	!	!	!	!
[6cc-X/	12d-X^\L	.	.	<
.	.	32eee-\JJ	.	.
.	.	32fffn\LL	.	.
.	.	32cccc-X\	.	.
.	12e-^\J&&)	.	.	.
.	.	32dddd-\	.	[
.	.	32eeee-\JJJ	[	.
4cc-/]&)	4f^\	32ffff\LLL	>	.
.	.	32eeee-\	.	.
.	.	32dddd-\	.	.
.	.	32cccc-\JJ	.	.
.	.	32fff\LL	.	.
.	.	32eee-\	.	.
.	.	32ddd-\	.	.
.	.	32ccc-\JJJ)	]	.
*clefF4	*	*	*	*
=24	=24	=24	=24	=24
!	!	!	!LO:DY:b	!
8Gn 8GGn/	8ryy	(24ff-X\LL	p<	.
.	.	24bb-\	.	.
.	.	24ddd-\JJ	.	.
*clefG2	*	*	*	*
!LO:TX:a:i:t=(ten.)	!	!	!	!
[8b-/	8d-^\	32eee-\LL	.	<
.	.	32fff-X\	.	.
.	.	32bbb-\	.	.
.	.	32dddd-\JJJ	[	.
4b-/]	4e-^\	24eeee-\LLL	>	.
.	.	24dddd-\	.	.
.	.	24bbb-\JJ	.	[
.	.	32fff-\LL	.	.
.	.	32eee-\	.	.
.	.	32ddd-\	.	.
.	.	32bb-\JJJ)	]	.
*clefF4	*	*	*	*
!LO:TUP:a:problem:klamra łukowa	!	!	!	!
(<12A- 12AA-/	12ryy	(32ffn\LLL	<	.
.	.	32ccc-X\	.	.
.	.	32ddd-\	.	.
*clefG2	*	*	*	*
!LO:TX:a:i:t=(ten.)	!	!	!	!
[6cc-X/	12d-^\L	.	.	.
.	.	32eee-\JJ	.	.
.	.	32fffn\LL	.	.
.	.	32cccc-X\	.	.
.	12e-^\J)	.	.	.
.	.	32dddd-\	.	.
.	.	32eeee-\JJJ	[	.
4cc-/]	4f\	32ffff\LLL	>	.
.	.	32eeee-\	.	.
.	.	32dddd-\	.	.
.	.	32cccc-X\JJ	.	.
.	.	32fff\LL	.	.
.	.	32eee-\	.	.
.	.	32ddd-\	.	.
.	.	32ccc-\JJJ)	]	.
*clefF4	*	*	*	*
*	*	*	*v	*v
!!LO:LB:g=original
=25	=25	=25	=25
*	*	*	*^
8Gn 8GGn/	8ryy	(24ff-X\LL	<	.
.	.	24bb-\	.	.
.	.	24ddd-\JJ	.	.
*clefG2	*	*	*	*
!LO:TX:a:i:t=(ten.)	!	!	!	!
[8b-/	8d-^\	32eee-\LL	.	.
.	.	32fff-X\	.	.
.	.	32bbb-\	.	.
.	.	32dddd-\JJJ	[	.
4b-/]	4e-^\	24eeee-\LLL	>	.
.	.	24dddd-\	.	.
.	.	24bbb-\JJ	.	.
.	.	32fff-\LL	.	.
.	.	32eee-\	.	.
.	.	32ddd-\	.	.
.	.	32bb-\JJJ)	]	.
*clefF4	*	*	*	*
*Xtuplet	*tuplet	*	*	*
!	!LO:TUP:b:problem:klamra łukowa	!	!	!
(<12A- 12AA-/	12ryy	(32ffn'\LLL	<	.
.	.	32ccc-X'\	.	.
.	.	32ddd-'\	.	.
*clefG2	*	*	*	*
!LO:TX:a:i:t=(ten.)	!	!	!	!
[6cc-X/	12d-^\L	.	.	.
.	.	32dddn'\JJ	.	.
!	!	!LO:TX:t=cre-scen-do:ext=cd:problem:text with extention lines	!	!LO:HP:a
.	.	32eee-'\LL	.	<
.	.	32ddd'\	.	.
.	12e-^\J)	.	.	.
.	.	32eee-'\	.	.
.	.	32gggn'\JJJ	.	.
8cc-/]	8.f^\L	32aaa-'\LLL	.	.
.	.	32ggg'\	.	.
.	.	32aaa-'\	.	.
.	.	32bbb-'\JJ	.	.
8ryy	.	32cccc-X'\LL	.	.
.	.	32bbb-'\	.	[
.	16ff^\Jk	32cccc-'\	.	.
.	.	32eeeen'\JJJ)	[	.
*v	*v	*	*v	*v
=26	=26	=26
*M6/4	*M6/4	*
*tuplet	*tuplet	*
!	!LO:TX:t=P:problem:oznaczenia w nawiasie	!
(12AnL 12AAn/	(20ffffn\LL	f
.	20dddd-X\	>
12B-/	.	.
.	20ccccn\	.
.	20aaan\	.
12Bn/J	.	.
.	20fff\JJ)	.
*Xtuplet	*	*
12c/L	(20eeee-\LL	.
.	20bbb-X\	.
12d-/	.	.
.	20aaa\	.
.	20ggg-X\	.
12dn/J	.	.
.	20eee-\JJ)	.
12e-/L	(20cccc\LL	.
.	20aaa\	.
12en/	.	.
.	20ggg-\	.
.	20eee-\	.
12f/J	.	.
.	20ccc\JJ)	.
12g-X/L	(20aaa\LL	.
.	20ggg-\	.
12gn/	.	.
.	20eee-\	.
!	!LO:TX:t=P:problem:- w nawiasie	!
.	20ddd-X\	.
12a-/J	.	.
.	20aan\JJ)	.
!LO:TX:a:i:t=poco rit.	!	!
12an\L	(20ggg-\LL	.
.	20eee-\	.
12b-\	.	.
.	20ddd-\	.
.	20aa\	.
12cc\J	.	.
.	20gg-X\JJ)	.
8dd-\)	(20eee-\LL	.
.	20ddd-\	.
.	20aa\	.
8r	.	.
.	20gg-\	.
.	20ee-\JJ)	]
!!LO:PB:g=original
=27	=27	=27
*M4/4	*M4/4	*
*met(c)	*met(c)	*
*^	*	*
*	*	*Xtuplet	*
8AnL 8AAn/	8ryy	(24gg-X\LL	p <
.	.	24ccc\	.
.	.	24eee-\JJ	.
!LO:TX:a:i:t=(ten.)	!	!	!
[8cc/J	8e-^\	32fff\LL	.
.	.	32ggg-X\	.
.	.	32cccc\	.
.	.	32eeee-\JJJ	[
4cc/]	4f^\	32ffff\LLL	>
.	.	32eeee-\	.
.	.	32cccc\	.
.	.	32ggg-\JJ	.
.	.	32fff\LL	.
.	.	32eee-\	.
.	.	32ccc\	.
.	.	32gg-\JJJ)	]
*tuplet	*	*	*
!LO:TUP:a:problem:klamra łukowa	!	!	!
(<12B- 12BB-/	12ryy	(32ggn\LLL	<
.	.	32ddd-\	.
.	.	32eee-\	.
[6dd-/	12e-^\L	.	.
.	.	32fff\JJ	.
.	.	32gggn\LL	.
.	.	32dddd-\	.
.	12f^\J)	.	.
.	.	32eeee-\	.
.	.	32ffff\JJJ	[
4dd-/]	4gn^\	32ggggn\LLL	>
.	.	32ffff\	.
.	.	32eeee-\	.
.	.	32dddd-\JJ	.
.	.	32ggg\LL	.
.	.	32fff\	.
.	.	32eee-\	.
.	.	32ddd-\JJJ)	]
=28	=28	=28	=28
8AnL 8AAn/	8ryy	(24gg-X\LL	<
.	.	24ccc\	.
.	.	24eee-\JJ	.
!LO:TX:a:i:t=(ten.)	!	!	!
[8cc/J	8e-^\	32fff\LL	.
.	.	32ggg-X\	.
.	.	32cccc\	.
.	.	32eeee-\JJJ	[
4cc/]	4f^\	32ffff\LLL	>
.	.	32eeee-\	.
.	.	32cccc\	.
.	.	32ggg-\JJ	.
.	.	32fff\LL	.
.	.	32eee-\	.
.	.	32ccc\	.
.	.	32gg-\JJJ)	]
*tuplet	*Xtuplet	*	*
!LO:TUP:a:problem:klamra łukowa	!	!	!
12B- 12BB-/	12ryy	(32ggn\LLL	<
.	.	32ddd-\	.
.	.	32eee-\	.
!LO:TX:a:i:t=(ten.)	!	!	!
[6dd-/	12e-^\L	.	.
.	.	32fff\JJ	.
.	.	32gggn\LL	.
.	.	32dddd-\	.
.	12f^\J	.	.
.	.	32eeee-\	.
.	.	32ffff\JJJ	[
4dd-/]	4gn^\	32ggggn\LLL	>
.	.	32ffff\	.
.	.	32eeee-\	.
.	.	32dddd-\JJ	.
.	.	32ggg\LL	.
.	.	32fff\	.
.	.	32eee-\	.
.	.	32ddd-\JJJ)	]
!!LO:LB:g=original
=29	=29	=29	=29
*	*	*	*^
8AnL 8AAn/	8ryy	(24gg-X\LL	<	.
.	.	24ccc\	.	.
.	.	24eee-\JJ	.	.
[8cc/J	8e-^\	32fff\LL	.	.
.	.	32ggg-X\	.	.
.	.	32cccc\	.	.
.	.	32eeee-\JJJ	[	.
!LO:TX:a:i:t=(ten.)	!	!	!	!
4cc/]	4f^\	32ffff\LLL	>	.
.	.	32eeee-\	.	.
.	.	32cccc\	.	.
.	.	32ggg-\JJ	.	.
.	.	32fff\LL	.	.
.	.	32eee-\	.	.
.	.	32ccc\	.	.
.	.	32gg-\JJJ)	]	.
*tuplet	*tuplet	*	*	*
!LO:TUP:a:problem:klamra łukowa	!	!	!	!
(<12B- 12BB-/	12ryy	(32ggn'\LLL	<	.
.	.	32ddd-'\	.	.
.	.	32eee-'\	.	.
!LO:TX:a:i:t=(ten.)	!	!	!	!
[6dd-/	12e-^\L	.	.	.
.	.	32eeen'\JJ	.	.
.	.	32fff'\LL	.	.
.	.	32eee'\	.	.
.	12f^\J)	.	.	<
.	.	32fff'\	.	.
.	.	32aaan'\JJJ	.	.
8dd-/]	8.gn\L	32bbb-'\LLL	.	.
.	.	32aaa'\	.	.
.	.	32bbb-'\	.	.
.	.	32cccc'\JJ	.	.
8ryy	.	32dddd-'\LL	.	.
.	.	32cccc'\	.	.
.	16ggn^>\Jk	32dddd-'\	.	.
.	.	32ffff#X'\JJJ)	[	[
*v	*v	*	*v	*v
=30	=30	=30
*M6/4	*M6/4	*
*Xtuplet	*tuplet	*
!	!LO:TX:t=P:problem:uwaga na tekst	!
(12BnL 12BBn/	(20gggg\LL	f
.	20eeee-X\	>
12c/	.	.
.	20ddddn\	.
.	20bbbn\	.
12c#X/J	.	.
.	20ggg\JJ)	.
12dn/L	(20ffff\LL	.
.	20cccc\	.
12e-X/	.	.
.	20bbb\	.
.	20aaa-X\	.
12en/J	.	.
.	20fff\JJ)	.
12f/L	(20ddddn\LL	.
.	20bbb\	.
12f#X/	.	.
.	20aaa-\	.
.	20fff\	.
12g/J	.	.
.	20dddn\JJ)	.
12a-X/L	(20bbb\LL	.
.	20aaa-\	.
12an/	.	.
.	20eee-X\	.
.	20ddd\	.
12b-X/J	.	.
.	20bbn\JJ)	.
12bn\L	(20aaa-\LL	.
.	20fff\	.
12cc\	.	.
.	20eee-\	.
.	20bb\	.
12ddn\J	.	.
.	20aa-\JJ)	]
8ee-\)	(20fff\LL	.
.	20eee-\	.
.	20bb\	.
8r	.	.
.	20aa-\	.
.	20ff\JJ)	.
!!LO:LB:g=original
=31	=31	=31
*M4/4	*M4/4	*
*met(c)	*met(c)	*
!	!LO:TR:acc=n	!
(12C'>/L	4ggg 4eeentt\	mp <
12G'>/	.	.
12c'>/J	.	.
.	16qqfff#XLL 16qqddd#X/	.
.	16qqgggJJ 16qqeee/	.
12en'>/L	([4eeeen [4ggg\	.
12f'>/	.	.
12f#X'>/J	.	[
12g'>/L	8.eeee]L 8.ggg\]	>
12an'>/	.	.
12bn'>/J	.	.
.	16dddd#XJk 16fff#X'\	.
*	*Xtuplet	*
!LO:TX:a:i:t=poco rit.	!	!
12cc'\L	12ddddnL 12fffn'\	.
12ddn'\	12cccc 12eeen'\	.
12dd#X'\J)	12bbbnJ 12ddd#X'\)	]
=32	=32	=32
*	*^	*^
!!LO:TX:a:i:t=(grazioso, poco scherz.)
!	!	!LO:TX:t=P:problem:"łamane" łuki	!	!
8g#X: 8Bn: 8En^>:/	(16bbbnLL 16eeen'/	N(NN(4bbn^\	<	.
.	16ccc#X 16gg#X'/	.	.	.
8r	16ddd#X 16bb'/	.	.	.
.	16eeeJJ 16gg#'/	.	.	.
*tuplet	*	*	*	*
!LO:TX:t=P:problem:n w nawiasie	!	!	!	!
12bbn~\LN)	16fff#XLL 16ccc#X'\	4ryy	.	.
!	!	!	!	!LO:HP:a
.	16ggg#X 16bbnX'\	.	.	<
12een^\	.	.	.	.
.	16aaan 16fff#'\	.	.	.
12ff#X^\J	.	.	.	.
.	16aaa#XJJ 16eee'\)	.	[	.
*tremolo	*tremolo	*	*	*
!LO:TX:b:i:t=(trillo)	!LO:TX:b:i:t=(trillo)	!	!LO:DY:b:rj	!LO:HP:a
32gg#X\LLL	(32bbbnLLL 32eee\	16ryy	f >	>
32aan\	32eeeen 32cccc#X\	.	.	.
32gg#\	32bbb 32eee\	16ryy	.	.
32aa\	32eeee 32cccc#X\	.	.	.
32gg#\	32bbb 32eee\	16ryy	.	.
32aa\	32eeee 32cccc#\	.	.	.
32gg#\	32bbb 32eee\	16ryy	.	.
32aa\	32eeee 32cccc#\	.	.	.
32gg#\	32bbb 32eee\	16ryy	.	.
32aa\	32eeee 32cccc#\	.	.	.
32gg#\	32bbb 32eee\	16ryy	.	.
32aa\	32eeee 32cccc#\	.	.	.
32gg#\	32bbb 32eee\	16ryy	.	.
32aa\	32eeee 32cccc#\	.	.	.
32gg#\	32bbb 32eee\	16ryy	.	.
32aa\JJJ	32eeeeJJJ 32cccc#X\)	.	]	.
*Xtremolo	*Xtremolo	*	*	*
*	*	*	*v	*v
*	*v	*v	*
16qqff##X/LL	16qqaaa#X/LL	.
16qqgg#/JJNN)	16qqbbb/JJ	.
=33	=33	=33
*^	*	*
!	!	!LO:TR:acc=n	!
(12enL 12Gn 12Cn/	4ryy	4gggnX 4eeentt\	mp <
12fn/	.	.	.
12f#X/J	.	.	.
.	.	16qqfff#XLL 16qqddd#X/	.
.	.	16qqgggJJ 16qqeee/	.
*Xtuplet	*	*	*
12g/L	4ryy	[4eeeen [4ggg^\	.
12an/	.	.	.
12bn/J)	.	.	.
*tuplet	*	*tuplet	*
!LO:TUP:a:problem:klamra łukowa	!	!	!
12r	[4cc\	12eeee]L 12ggg\]	.
12cccL 12aan'</	.	(24dddd#X\L	[
.	.	24fff#X\	.
12ccc-J 12aa-'</	.	24fffn\	>
.	.	24ddddn\JJ	.
*Xtuplet	*	*	*
!	!	!LO:TUP:num=3	!
12bb-XL 12gg'</	8cc\]	24cccc#X\LL	.
.	.	24eeen\	.
12aan 12ff#X'</	.	24eee-X\	.
.	8r	24ccccn\	.
12aa-XJ 12ffn'</	.	24cccc-X\	.
.	.	24dddn\JJ)	]
*v	*v	*	*
!!LO:LB:g=original
=34	=34	=34
*	*^	*^
!	!LO:TX:t=P:problem:"łamane" łuki	!	!	!
!LO:TX:t=P:problem:znaki B- E- w nawiasie	!LO:TX:t=P:problem:znaki w nawiasie	!	!	!
8g-X: 8B-X: 8E-X^>:/	(16bbb-XLL 16eee-X'/	N(NN(4bb-X^\	<	.
.	16cccn 16gg-X'/	.	.	.
8r	16dddn 16bb-'/	.	.	.
.	16eee-JJ 16gg-'/	.	.	.
!LO:TX:t=P:problem:- w nawiasie	!	!	!	!
12bb-X\LN)	16fffLL 16ccc'\	4ryy	.	.
.	16ggg-X 16bb-'\	.	.	.
!LO:TX:t=P:problem:- w nawiasie	!	!	!	!
12ee-X^\	.	.	.	.
!!LO:TX:a:i:t=poco a poco più ap-pa-siona-to cre-scen-do ed accelerando:dur=15q:ext=cd:problem:text with extention lines
!	!LO:TX:t=P:problem:- w nawiasie	!	!	!LO:HP:a
.	16aaa-X 16fff'\	.	.	<
12ffn^\J	.	.	.	.
.	16aaanXJJ 16eee-'\)	.	[	.
*tremolo	*tremolo	*	*	*
!LO:TX:t=P:problem:znak aa- w nawiasie	!	!	!LO:DY:b	!
(32gg-X\LLL	(32bbb-LLL 32eee-\	16ryy	f	.
32aa-Xi\	32eeee- 32cccc-X\	.	.	.
32gg-\	32bbb- 32eee-\	16ryy	.	.
32aa-\	32eeee- 32cccc-\	.	.	.
32gg-\	32bbb- 32eee-\	16ryy	.	.
32aa-\	32eeee- 32cccc-\	.	.	.
32gg-\	32bbb- 32eee-\	16ryy	.	.
32aa-\	32eeee- 32cccc-\	.	.	.
32gg-\	32bbb- 32eee-\	16ryy	.	.
32aa-\	32eeee- 32cccc-\	.	.	.
32gg-\	32bbb- 32eee-\	16ryy	.	.
32aa-\	32eeee- 32cccc-\	.	.	.
32gg-\	32bbb- 32eee-\	16ryy	.	.
32aa-\	32eeee- 32cccc-\	.	.	.
32gg-\	32bbb- 32eee-\	16ryy	.	.
!LO:TX:t=P:problem:- w nawiasie	!	!	!	!
32aa-\JJJ)	32eeee-JJJ 32cccc-X\)	.	.	.
*Xtremolo	*Xtremolo	*	*	*
16qqff/LL	16qqaaan/LL	.	.	.
16qqgg-/JJNN)	16qqbbb-/JJ	.	.	.
*	*	*	*v	*v
*	*v	*v	*
*clefF4	*	*
=35	=35	=35
*^	*	*
*tuplet	*	*	*
!LO:TUP:b	!	!	!LO:DY:b:rj
12G-/L	(>[>4e- 4C-\	(8ggg-XL 8eee-X 8gg-X\	f
12A-/	.	.	.
.	.	16fffL 16dddn 16ff\	.
12B-/J	.	.	.
.	.	16ggg-JJ 16eee- 16gg-'\)	.
*Xtuplet	*	*	*
12e-/L]	4c-X\	([4gggg-X [4eeee- [4ggg-^\	<
12f-X/	.	.	.
12fn/J	.	.	.
*clefG2	*	*Xtuplet	*
12g-X/L	4g-^\	12gggg-]L 12eeee-] 12ggg-\]	.
12a-/	.	12ffff 12ddddn 12fff~\	.
12b-/J	.	12ffff-XJ 12dddd-X 12fff-X~\	.
!	!	!LO:TX:b:i:t=poco rit.	!
12cc-X/L	4g-^\	12eeee-L 12cccc-X 12eee-~\	.
12dd-/	.	12dddd-X 12bbb- 12ddd-X~\	.
12ee-/J)	.	12cccc-XJ 12aaa- 12ccc-X~\)	.
*v	*v	*	*
=36	=36	=36
*	*^	*^
!!LO:TX:a:i:t=(a tempo)
!	!LO:TX:t=P:problem:"łamany" łuk	!	!	!
8g-X: 8B-: 8E-^>:/	(16bbb-LL 16eee-'/	N(4bb-^\	<	.
!	!	!	!	!LO:HP:a
.	16cccn 16gg-X'/	.	.	<
8r	16dddn 16bb-'/	.	.	.
.	16eee-JJ 16gg-'/	.	.	.
12bb-\LN)	16fffLL 16ccc'\	4ryy	.	.
.	16ggg-X 16bb-'\	.	.	.
12ee-^\	.	.	.	.
.	16aaa- 16fff'\	.	.	.
12ff^\J	.	.	.	.
.	16aaanJJ 16eee-'\)	.	[	.
*tremolo	*tremolo	*	*	*
!	!	!	!LO:DY:b	!
(32gg-X\LLL	(32bbb-LLL 32eee-\	16ryy	f >	.
32aa-\	32eeee- 32cccc-X\	.	.	.
32gg-\	32bbb- 32eee-\	16ryy	.	.
32aa-\	32eeee- 32cccc-\	.	.	.
32gg-\	32bbb- 32eee-\	16ryy	.	.
32aa-\	32eeee- 32cccc-\	.	.	.
32gg-\	32bbb- 32eee-\	16ryy	.	.
32aa-\	32eeee- 32cccc-\	.	.	.
32gg-\	32bbb- 32eee-\	16ryy	.	.
32aa-\	32eeee- 32cccc-\	.	.	.
32gg-\	32bbb- 32eee-\	16ryy	.	.
32aa-\	32eeee- 32cccc-\	.	.	.
32gg-\	32bbb- 32eee-\	16ryy	.	.
32aa-\	32eeee- 32cccc-\	.	.	.
32gg-\	32bbb- 32eee-\	16ryy	.	.
32aa-\JJJ)	32eeee-JJJ 32cccc-X\)	.	]	.
*Xtremolo	*Xtremolo	*	*	*
*	*	*	*v	*v
*	*v	*v	*
16qqff/LL	16qqaaan/LL	.
16qqgg-/JJ	16qqbbb-/JJ	.
*	*X8va	*
*clefF4	*	*
!!LO:LB:g=original
=37	=37	=37
*^	*	*
!	!	!LO:TX:a:i:t=loco	!
(12GG-X:/L	4E-: 4CC-X:\	(8gg-XL 8ee- 8g-X\	f
12AA-/	.	.	.
!	!	!LO:TX:a:i:t=cre-scen-do:ext=cd:problem:text with extention lines	!
.	.	16ffL 16ddn 16f\	<
12BB-/J	.	.	.
.	.	16gg-JJ 16ee- 16g-'\)	.
12e-:L 12E-:/	4C-X:\	([4ggg-X [4eee- [4gg-^\	.
12f-X 12F-X/	.	.	.
12fnJ 12Fn/	.	.	.
12g-XL 12G-X/	4G-\	12ggg-]L 12eee-] 12gg-\]	[
12a- 12A-/	.	12fff 12dddn 12ff~\	.
12b-J 12B-/	.	12fff-XJ 12ddd-X 12ff-X~\	.
!	!	!LO:TX:b:i:t=riten.	!
12c-X:/L	4cc-X: 4G-:\	12eee-L 12ccc-X 12ee-~\	.
12d-/	.	12ddd-X 12bb- 12dd-X~\	.
12e-/J)	.	12ccc-XJ 12aa- 12cc-X~\)	.
*v	*v	*	*
=38	=38	=38
*	*	*^
*tuplet	*	*	*
!	!	!LO:HP:b=2	!
!LO:TUP:b	!	!LO:DY:b:t=%s (ben accentuato)	!
12DnL 12DDn/	8aan 8ff#X 8ddn 8an^\	f <	.
12dn 12F#X^/	.	.	.
.	8r	.	.
12enJ 12An^/	.	.	.
*	*tuplet	*	*
!!LO:TX:a:i:t=ac-ce-lerando:dur=5e:ext=ud:problem:text with extention lines	!
!	!LO:TUP:a:problem:klamra łukowa	!	!
4f#X 4d^\	12r	[	.
.	12ddnL 12f#X^/	<	.
.	12eenJ 12an^/	.	.
!LO:TUP:b:r=4:num=3:problem:klamra łukowa	!	!	!
12.r	8.ff#XL 8.dd\	.	.
24AnKL 24AAn^/	.	.	.
12AJ 12AA^/	.	.	.
.	(16aaJk (16a\	.	.
4r	8.fff#XL 8.ff#X^\))	[	.
.	((16fffnJk 16ffn\	.	.
=39	=39	=39	=39
!	!	!LO:DY:b	!
12DnL 12DDn/	4bbb-X 4bb-X^\))	sff	<
12B-X 12D^/	.	.	.
12cnJ 12Fn^/	.	.	.
!	!LO:TUP:b:problem:klamra łukowa	!	!
4dn 4B-\	12r	<	[
.	(12b-XL 12dn^>/	.	.
.	12ccnJ 12fn^>/	.	.
!LO:TUP:a:r=4:num=3:problem:klamra łukowa	!	!	!
12.r	8.dd-L 8.b-^\)	.	.
24B-KL 24BB-X^<\	.	.	.
12B-J 12BB-^<\	.	.	.
!	!LO:S:s=2:note:problem=note-level slur	!	!LO:HP:a
.	(16bb-Jk (>16b-\	.	<
!	!LO:S:s=2:note:problem=note-level slur	!	!
4r	8.gggL) 8.gg^\)	.	.
.	(16ggg-XJk (16gg-X\	[	.
*	*	*v	*v
!!LO:PB:g=original
=40	=40	=40
!!LO:TX:a:B:t=Molto appasionato.
(16EE-X\LL	8.bbb-L 8.bb-^\))	ff <
16E-X\	.	.
16G-X\	.	.
16g-X\JJ)	(16bb-Jk 16b-\	.
(16DDn\LL	[4ccc-X [4gg-X [4cc-X^\	.
16Dn\	.	.
16G-\	.	.
16g-\JJ)	.	.
*	*Xtuplet	*
(16DD-X\LL	12ccc-]L 12gg-] 12cc-\]	.
16D\	.	.
.	12bb- 12gg- 12b-\	.
16G-\	.	.
.	12ccc-J 12cc-\	.
!	!LO:TX:b:i:t=rit.	!
16A-\JJ	.	.
12B-\L	8.ddd-XL 8.bb- 8.dd-X^\	.
12.e-\	.	.
.	16bbb-Jk 16bb-\	[
24d-X\Jk)	.	.
=41	=41	=41
*M3/4	*M3/4	*
(16DDn/LL	2bbb- 2ggg-X 2bb-\	>
16Dn/	.	.
16G-X/	.	.
16A-/JJ	.	.
*clefG2	*	*
16B-/LL	.	.
16dn/	.	.
16g-X/	.	.
16a-/JJ	.	.
!	!LO:TX:b:i:t=rit.	!
16ddn/LL	4bb- 4b-\)	]
16a-/	.	.
16g-/	.	.
16d/JJ)	.	.
*clefF4	*	*
=42	=42	=42
*M4/4	*M4/4	*
*met(c)	*met(c)	*
*	*	*^
!	!	!LO:DY:b	!
(16EE-\LL	8r	ff	.
16E-\	.	.	.
16G-X\	(8bb- [<8gg-X 8b-\	<	.
16g-X\JJ)	.	.	.
(16DDn\LL	[4ccc-X [4gg-] [4cc-X\	.	.
16Dn\	.	.	.
16G-\	.	.	.
16g-\JJ)	.	.	.
!	!	!	!LO:HP:a
(16DD-X\LL	12ccc-]L 12gg-] 12cc-\]	.	<
16D-X\	.	.	.
.	12bb- 12gg- 12b-\	.	.
16G-\	.	.	.
.	12ccc-J 12cc-\	.	.
16A-\JJ	.	.	.
!	!LO:TX:b:i:t=poco rit.	!	!
12B-\L	8.ddd-L 8.bb- 8.dd-\	.	.
12.e-\	.	.	.
.	16bbb-Jk 16bb-\	[	.
24d-\Jk)	.	.	.
*	*	*v	*v
!!LO:LB:g=original
=43	=43	=43
*M3/4	*M3/4	*
(16DDn/LL	2bbb- 2ggg-X 2bb-\	>
16Dn/	.	.
16G-X/	.	.
16A-/JJ	.	.
*clefG2	*	*
16B-/LL	.	.
16dn/	.	.
16g-X/	.	.
16a-/JJ	.	.
!	!LO:TX:b:i:t=rit.	!
16ddn/LL	4bb- 4b-\)	]
16b-/	.	.
16a-/	.	.
16d/JJ)	.	.
*clefF4	*	*
=44	=44	=44
*M4/4	*M4/4	*
*met(c)	*met(c)	*
*Xtuplet	*	*
(12EE-/L	8r	mp
12E-/	.	.
.	(8bb- [<8gg-X 8b-\	<
12G-X/J	.	.
12g-X\L	[4ccc-X [4gg-] [4cc-X\	.
12B-\	.	.
12G-\J)	.	.
*	*Xtuplet	*
!!LO:TX:a:i:t=ac-celer. e cresc.:dur=7e:ext=cd:problem:text with extention lines
(12FF-X\L	12ccc-]L 12gg-] 12cc-\]	.
12F-X\	12bb- 12gg- 12b-\	.
12G-X\J	12cccnJ 12ccn\	.
12g-X\L	4ddd- 4dd-\)	.
12B-\	.	.
12G-\J)	.	.
=45	=45	=45
(12FFn\L	8r	.
12Fn\	.	.
.	(8ddd- [<8bb- 8dd-\	[
12B-\J	.	.
12b-\L	[4eee- 4bb-_ [4ee-\	.
12d-\	.	.
12G-XJ 12GG-X^\)	.	.
(12GnL 12GGn^\	12eee-]L 12bb-] 12ee-\]	.
!!LO:TX:a:i:t=Rallent.
12d-\	12ddd- 12bb- 12dd-\	.
12b-\J)	12eee-J 12ee-\	.
!	!	!LO:DY:b=2
8.A-L 8.AA-^\	8fffn 8ffn\)	sf
.	8r	.
16B-Jk 16BB-^\	.	.
!!LO:LB:g=original
=46	=46	=46
*^	*^	*
!!LO:TX:a:B:t=poco meno mosso.
!LO:TX:b:i:t=maestoso	!LO:TX:b:i:rj:t=ten.	!LO:TX:a:i:t=furioso	!	!
4G#X 4GG#X^</	2.C#X 2.AA#X\	(24c#X/LL	4c#^\	.
.	.	24E#X/	.	ff <
.	.	24Bn/	.	.
.	.	24dn/	.	.
.	.	24e#X/	.	.
.	.	24bn/JJ	.	.
8.F#XL 8.FF#X^</	.	24ddn\LL	4ryy	.
.	.	24ee#X\	.	.
.	.	24bbn\	.	.
.	.	24dddn\	.	.
.	.	24eee#X\	.	.
16E#XJk 16EE#X^</	.	.	.	.
.	.	24bbbn\JJ	.	[
4D#X 4DD#X^</	.	24ddddn\LL	2ryy	>
.	.	24bbb\	.	.
.	.	24eee#\	.	.
.	.	24ddd\	.	.
.	.	24bb\	.	.
.	.	24ee#\JJ	.	.
8.C#XL 8.CC#X^</	4ryy	24dd/LL	.	.
.	.	24b/	.	.
.	.	24e#/	.	.
.	.	24d/	.	.
.	.	24B/	.	.
16D#Jk 16DD#^</	.	.	.	.
.	.	24E#/JJ)	.	]
=47	=47	=47	=47	=47
!	!LO:TX:b:i:rj:t=ten.	!	!	!
4C#X 4CC#X^</	2.FF#X 2.DD#X\	(24F#X/LL	4F#^\	<
.	.	24Gn/	.	.
.	.	24A#X/	.	.
.	.	24en/	.	.
.	.	24gn/	.	.
.	.	24a#X/JJ	.	.
8.BBnL 8.BBBn^</	.	24een\LL	4ryy	.
.	.	24ggn\	.	.
.	.	24aa#X\	.	.
*	*	*8va	*	*
.	.	24eee\	.	.
.	.	24ggg\	.	.
16AA#XJk 16AAA#X^</	.	.	.	.
.	.	24aaa#\JJ	.	[
!LO:TX:a:i:t=Rallent.	!	!	!	!
4GG#X 4GGG#X^</	.	24eeeen\LL	2ryy	>
.	.	24aaa#\	.	.
.	.	24ggg\	.	.
.	.	24eee\	.	.
.	.	24aa#\	.	.
.	.	24gg\JJ	.	.
*v	*v	*	*	*
*	*X8va	*	*
*^	*	*	*
!	!	!LO:TX:a:i:t=loco	!	!
8.FF#XL 8.FFF#X^/	4ryy	24ee/LL	.	.
.	.	24a#/	.	.
.	.	24g/	.	.
.	.	24e/	.	.
.	.	24c#X/	.	.
16GG#Jk 16GGG#^/	.	.	.	.
.	.	24A#/JJ)	.	]
*v	*v	*	*	*
*	*v	*v	*
!!LO:LB:g=original
=48	=48	=48
*	*	*^
!!LO:TX:a:B:t=Maestoso e sonore.
!!LO:TX:a:i:t=poco meno mosso
!	!	!LO:DY:b	!LO:DY:b=2:rj
32EEEn/LLL	(>4bn 4g#X 4en 4Bn/	ff	sff
32EEn/	.	.	.
[[32EEE/	.	.	.
[>32EE/JJ	.	.	.
8EE_J [8EEE/]]	.	.	.
!	!LO:TX:a:i:t=cre-scen-do:ext=cd:problem:text with extention lines	!	!
4EE] 4EEE/]	8.g#L 8.G#X/	<	.
.	16bJk 16B/	.	.
4Gn 4En 4AA#X^\	8.cc#XL 8.gn 8.c#X^>/	.	.
.	16bJk 16B/	.	.
4F#X 4D#X 4AAn^/	8.ff#XL 8.b 8.f#X^>/	.	.
.	16eenJk 16en/)	.	.
=49	=49	=49	=49
*	*8va	*	*
4Bn 4En 4BBn 4GG#X^\	(>4bbn 4een 4bn/	.	.
!	!	!	!LO:DY:b=2:rj
32EEEn/LLL	8.gg#XL 8.g#X/	.	sff
32EEn/	.	[	.
[[32EEE/	.	.	.
[>32EE/JJ	.	.	.
8EE]J 8EEE/]]	.	.	.
.	16bbJk 16b/	.	.
4gnX 4en 4A#X^<\	8.ccc#XL 8.ggn 8.cc#X^>/	.	.
.	16bbJk 16b/	.	.
!	!LO:TX:b:i:t=riten.	!	!
4f#X 4d#X 4An^<\	8.fff#XL 8.bb 8.ff#X^>/	.	.
.	16eeenJk 16ee/)	.	.
=50	=50	=50	=50
*	*^	*	*
!!LO:TX:a:B:t=Grave-Patetico.
!	!	!	!LO:DY:b:rj	!LO:DY:b=2:rj
4bn: 4g#X: 4en: 4Bn: 4G#X: 4C#X:\	([2bbbn [<2eeen [2bbn^\	2ryy	sff	sff
!	!	!	!LO:DY:b	!
4CC#X 4CCC#X^>/	.	.	fff	.
!!LO:TX:b:i:t=Ral-len-tan-do e di-mi-nuendo:dur=13q:ext=cd:problem:text with extention lines
!LO:TX:b:i:t=molto marcato	!	!	!LO:HP:b=2	!
8.G#L 8.GG#X^\	8bbb] 8bb\]	2eee/]	<	.
.	4aaa#X 4aa#X\	.	.	.
16A#XJk 16AA#X^\	.	.	.	.
4c#X 4C#X^\	.	.	.	.
.	[8ggg#X [<8gg#X\	.	[	.
*	*	*	*v	*v
=51	=51	=51	=51
4DD#X 4DDD#X/	8ggg#] 8gg#/]	8gg#y\L	.
.	4fff#X 4ff#X/	[8bbn\J	.
!	!	!	!LO:HP:b=2
8.c#XL 8.C#X^<\	.	2bb\_	<
.	4eeen 4een/	.	.
16d#XJk 16D#X^<\	.	.	.
(4f#X (4F#X^<\	.	.	.
.	4ddd#X 4dd#X/	.	.
4f##X 4F##X\))	.	8bb\L]	[
.	[8ccc#X [<8een [<8cc#X/	[>8aa#X\J	.
*	*v	*v	*
!!LO:LB:g=original
=52	=52	=52
4EEn 4EEEn/	8ccc#] 8aa#] 8ee] 8cc#/])	.
!!LO:TX:a:i:t=(pesante)
.	(>4ccc#X 4aa#X 4een 4cc#X~>/	.
4f##X 4en 4A#X 4F##X\	.	.
.	4ccc# 4aa# 4ee 4cc#~>/	.
!	!	!LO:HP:b=2
8.c#X^<\L	.	<
.	4ccc# 4aa# 4ee 4cc#~>/	.
16d#X^<\Jk	.	.
4f##^<\	.	.
.	[8ccc# [8aa# [8ee [8cc#~>/	[
=53	=53	=53
4EEn 4EEEn/	8ccc#] 8aa#] 8ee] 8cc#/])	.
*	*X8va	*
!	!LO:TX:a:i:t=loco	!
.	(4bbn 4ggn 4cc#X 4bn~\	>
8.C#XL 8.CC#X^/	.	.
.	4bb 4gg 4cc# 4b~\	.
16D#XJk 16DD#X^/	.	.
2Gn 2GGn^/	.	.
.	4bb 4gg 4cc# 4b~\	.
.	[8bb [8gg [>8cc# [8b~\	]]
=54	=54	=54
*	*^	*
!	!	!	!LO:HP:b=2
(8.C#XL 8.CC#X^/	8bb] 8gg] 8cc#] 8b\])	4ryy	f <
!!LO:TX:a:i:t=Ral-len-tan-do e dimi-nuen-do:dur=49e:ext=ud:problem:text with extention lines
.	4bn~> 4gn 4en 4c#X 4Bn/	.	.
16D#XJk 16DD#X/)	.	.	[
!	!LO:TX:t=P:problem:kasowniki w nawiasie	!	!
!	!LO:TX:b:i:t=m.d.	!	!
(4C# 4CC#\	.	2Gn< 2GGn<^/	.
.	4b~> 4g 4e 4c# 4B/	.	>
8.BBnL 8.BBBn\	.	.	.
.	4b~> 4g 4e 4c# 4B/	.	.
16AA#XJk 16AAA#X\	.	.	.
4GG#X 4GGG#X\)	.	4rA<	.
!	!LO:S:s=1:note:problem=note-level slur	!	!
.	[8b~> [8g [8e (<8d- [8B/	.	]]
*	*clefF4	*	*
*	*v	*v	*
=55	=55	=55
*8ba	*	*
*^	*^	*^
!	!	!LO:S:s=1:note:problem=note-level slur	!	!	!
(8.GGnL 8.GGGn/	4ryy	4b] 4g] 4e] 4c) 4B\]	4ryy	<	.
16AA-XJk 16AAA-X/	.	.	.	.	.
(>4GG 4GGG/)	[>2.BBBn\	8rA	[2.BBn\	[	.
!	!	!	!	!	!LO:HP:a
.	.	4Bn 4Gn 4En 4C#X~/	.	>	>
8.FF#XL 8.FFF#X/	.	.	.	.	.
.	.	4B 4G 4E 4C#~/	.	.	.
16FFnJk 16FFFn/	.	.	.	.	.
[4EEn [<4EEEn/)	.	.	.	.	.
.	.	[8B [8G [8E [<8C#~/	.	]	.
*v	*v	*	*	*v	*v
*	*v	*v	*
=56	=56	=56
2EE] 2BBB] 2EEE/]	4B] 4G] 4E] 4C#] 4BB/]	p >
!LO:TX:a:i:t=rall.	!	!
.	2.Bn 2.Gn 2.En 2.C#X 2.BBn/	.
2EEn 2EEEn/	.	.
=57	=57	=57
[1EE-X [1EEE-X;	1c-X 1A-X 1E-X 1C-X;	]ppp
*X8ba	*	*
*	*clefG2	*
!!LO:PB:g=original
=58||	=58||	=58||
*k[b-e-a-d-g-c-f-]	*k[b-e-a-d-g-c-f-]	*
*	*^	*
!!LO:TX:a:B:t=Lento. Mesto.
!!LO:TX:a:i:t=(Molto espressivo e cantando)
!LO:TX:t=P:problem:ligatura	!	!	!
4EE-] 4EEE-/]	8r	4ryy	pp
.	(>8a- 8A-/	.	.
!LO:TX:b:i:t=ten.	!	!	!
8.c-L 8.E-/	[4b- [<4B-^/	[>4e-\	<
([>16EE-/Jk	.	.	.
*	*tuplet	*	*
4EE-] 4EEE-/)	12b-L] 12B-/]	4e-\]	.
.	12a- 12A-/	.	.
.	12b-J 12B-/	.	.
!LO:TX:b:i:t=ten.	!LO:TX:b:i:t=rit.	!	!
8.e-L 8.G-/	4cc- 4c-^/)	4g-\	[
([>16EE-/Jk	.	.	.
=59	=59	=59	=59
4EE-] 4EEE-/)	8r	4ryy	.
.	(>8cc- 8c-/	.	<
!LO:TX:b:i:t=ten.	!	!	!
8.c-L 8.F-/	[4dd- [<4d-^/	[>4gn\	.
([>16EE-/Jk	.	.	.
*	*Xtuplet	*	*
4EE-] 4EEE-/)	12dd-L] 12d-/]	4g\]	.
.	12cc- 12c-/	.	.
.	12dd-J 12d-/	.	.
!LO:TX:b:i:t=ten.	!LO:TX:b:i:t=rit.	!	!
8.BnL 8.Gn 8.Fn/	4ddn 4dn^/)	4g\	[
([>16EE-/Jk	.	.	.
=60	=60	=60	=60
4EE-] 4EEE-/)	8r	4ryy	.
!	!LO:TX:b:i:t=poco avvivando e crescendo	!	!
.	(>8ddn 8dn/	.	.
!LO:TX:b:i:t=ten.	!	!	!
8.cnL 8.Gn 8.E-/	4.ee- 4.e-/	2gn\	.
([>16EE-/Jk	.	.	.
4EE-] 4EEE-/)	.	.	.
!	!LO:TX:t=P:problem:znaki w nawiasie	!	!
.	8cc-X 8c-X/	.	.
!LO:TX:b:i:t=ten.	!	!	!
8.G-XL 8.E- 8.Cn/	[4b- [<4B-/	[>4e-\	.
([>16EE-/Jk	.	.	.
=61	=61	=61	=61
4EE-] 4EEE-/)	8b-]L 8B-/]	4e-\])	.
.	(8ee-J 8e-/	.	.
!LO:TX:b:i:t=ten.	!	!	!
8.d-L 8.A- 8.D-/	4.ff-X 4.f-X/	2a-\	.
([>16EE-/Jk	.	.	.
4EE-] 4EEE-/)	.	.	.
.	8ccn 8cn/	.	<
!LO:TX:t=P:problem:znak F- w nawiasie	!	!	!
!LO:TX:b:i:t=ten.	!	!	!
8.A--L 8.F-X 8.D-/	[4cc-X [<4c-X/	[>4f-X\	.
([>16EE-/Jk	.	.	.
!!LO:LB:g=original
=62	=62	=62	=62
4EE-] 4EEE-/)	8cc-]L 8c-/])	4f-\]	.
.	(8ff-J 8f-/	.	.
!LO:TX:b:i:t=ten.	!LO:TX:a:i:t=ten.	!	!
8.dnL 8.An 8.Dn/	2ffn 2fn/	2an\	[mf
([>16EE-/Jk	.	.	.
!	!	!LO:TX:b:i:t=diminuendo e ralentando-:dur=5q:ext=cd:problem:text with extention lines	!
4EE-] 4EEE-/)	.	.	.
!LO:TX:b:i:t=ten.	!	!	!
8.dL 8.B- 8.D/	[4ff [<4f/	[>4a-X\	.
([>16EE-/Jk	.	.	.
=63	=63	=63	=63
*	*	*	*^
4EE-] 4EEE-/)	8ff]L 8f/]	4a-\]	.	.
.	8ggnJ 8gn/)	.	.	.
!LO:TX:b:i:t=ten.	!	!	!	!
(4fn 4Bn [4E-^\	([4gg [<4g^\	4ddn/	.	>
*	*Xtuplet	*Xtuplet	*	*
8.e-L 8.cn 8.E-\])	12gg]L 12g\]	4ccn/	.	.
.	12gg 12g\	.	.	.
.	12aa-J 12a-\	.	.	.
(<[16EE-\Jk	.	.	.	]
!	!	!	!LO:DY:b	!LO:DY:b=2
4EE-_ [4EEE-/)	4bb- 4b-\	4ee-/)	ppp	pp
=64	=64	=64	=64	=64
4EE-] 4EEE-/]	8r	4ryy	.	.
!	!LO:TX:a:i:t=cre-scen-do ed av-vi-van-do:dur=15e:ext=cd:problem:text with extention lines	!	!LO:HP:a	!
.	(>8aa- 8a-/	.	.	pp
!LO:TX:a:i:t=m.s.	!	!	!	!
(<12cc->\L	[4bb- [4b-^/	2ee-/	.	.
12f->\	.	.	.	.
12e->\J	.	.	.	.
12c-/L	12bb-]L 12b-/]	.	.	.
12F-/	12aa- 12a-/	.	.	.
12E- 12EE-/J)	12bb-J 12b-/	.	.	.
(<12ee->\L	4ccc- 4cc-^/)	4gg-/	<	.
12a->\	.	.	.	.
12g->\J	.	.	.	.
!!LO:LB:g=original
=65	=65	=65	=65	-65
12e-/L	8r	4ryy	.	.
12A-/	.	.	.	.
.	(>8ccc- 8cc-/	.	.	.
12G-J 12EE-/)	.	.	.	.
(<12ff->\L	[4ddd- [4dd-^/	2ggn/	.	.
12gn>\	.	.	.	.
12f->\J	.	.	.	.
12f-/L	12ddd-]L 12dd-/]	.	.	.
12Gn/	12ccc- 12cc-/	.	.	.
12E-J 12EE-/)	12ddd-J 12dd-/	.	.	.
(<12bn>L 12gn> 12fn>\	4dddn 4ddn^/)	4gg/	[	.
12e->\	.	.	.	.
12dn>\J	.	.	.	.
*	*	*	*v	*v
*	*v	*v	*
=66	=66	=66
12Fn/L	8r	.
12E-J 12EE-/)	.	.
!	!LO:TX:a:i:t=(con passione)	!
.	(8dddn 8ddn\	f
12r	.	.
!LO:TX:b:i:t=ten.	!	!
!LO:TX:t=P:problem:mixed beam	!	!
12ccnL 12gn 12cn^\	4.eee- 4.cccn 4.ggn 4.ee-^\	.
!	!LO:TX:a:i:t=cre-scen-do:ext=cd:problem:text with extention lines	!
(12EE-/	.	<
12EEE-/J)	.	.
(12E-/L	.	.
12EE-/J)	.	.
!	!LO:TX:t=P:problem:znaki w nawiasie	!
.	8ccc-X 8cc-X\	.
12r	.	.
!LO:TX:b:i:t=ten.	!	!
!LO:TX:t=P:problem:mixed beam	!	!
12g-XL 12e- 12c^>\	[4bb- [4gg-X [4ee- [4b-^\	.
(12EE-/	.	.
12EEE-/J)	.	[[
=67	=67	=67
(12E-/L	8bb-]L 8gg-] 8ee-] 8b-\])	.
12EE-/J)	.	.
.	(8eee-J 8ee-\	.
12r	.	.
!LO:TX:b:i:t=ten.	!	!
!LO:TX:t=P:problem:mixed beam	!LO:TX:t=P:problem:znaki w nawiasie	!
12dd-L 12a- 12f-X 12d-^\	4.fff-X 4.ddd- 4.aa- 4.ff-X^\	.
!	!LO:TX:a:i:t=cre-scen-do:ext=cd:problem:text with extention lines	!
(12EE-/	.	<
12EEE-/J)	.	.
(12E-/L	.	.
12EE-/J)	.	.
.	8cccn 8ccn\	.
12r	.	.
!LO:TX:b:i:t=ten.	!	!
!LO:TX:t=P:problem:mixed beam	!	!
12a--L 12f- 12d-^\	[4ccc-X [4aa-- [4ff- [4cc-X^\	.
!LO:TX:a:i:t=riten.	!	!
(12EE-/	.	.
12EEE-/J)	.	[[
!!LO:LB:g=original
=68	=68	=68
*^	*^	*^
4ryy	(12E-/L	8ccc-]L 8aa--] 8ff-] 8cc-\])	4ryy	.	.
.	12EE-/J)	.	.	.	.
.	.	8fff-J 8ff-\	.	.	.
.	12r	.	.	.	.
!!LO:TX:a:B:t=Maestoso.
!	!	!	!	!LO:DY:a:rj	!LO:DY:b:rj
4.ddn> 4.an> 4.fn> 4.dn>^\	12r	(4.fffn 4.dddn 4.aan 4.ffn^/	4.ryy	sf	sf
!	!	!	!	!LO:DY:b	!
.	(12DnL 12DDn/	.	.	ff	.
.	12DDJ 12DDDn/)	.	.	.	.
.	(12dnL 12D/	.	.	.	.
.	12DJ 12DD/)	.	.	.	.
8en>\	.	8eeen 8een/	8ryy	.	.
.	12r	.	.	.	.
[4a> [4f> [4dn>^\	12r	[4ddd [4aa [4ff [4ddny^/	4ryy	.	.
.	(12DL 12DD/	.	.	.	.
.	12DDJ 12DDD/)	.	.	.	.
=69	=69	=69	=69	=69	=69
8.a>]L 8.f>] 8.d>\]	(12dnL 12Dn/	8.ddd]L 8.aa] 8.ff] 8.dd/]	8.ryy	.	.
.	12DJ 12DDn/)	.	.	.	.
.	12r	.	.	.	.
16cn>\Jk	.	16cccnJk 16ccn/)	16ryy	.	.
!	!	!	!	!LO:DY:a:rj	!LO:DY:b:rj
4.a-X> 4.e-X> 4.c-X>^\	12r	(4.ccc-X 4.aa-X 4.ee-X 4.cc-X^/	4.ryy	sf	sf
.	(12E-XL 12EE-X/	.	.	.	.
.	12EE-J 12EEE-X/)	.	.	.	.
!	!LO:TX:t=P:problem:- w nawiasie	!	!	!	!
.	(12e-XL 12E-/	.	.	.	.
.	12E-J 12EE-/)	.	.	.	.
8B-X>\	.	8bb-X 8b-X/	8ryy	.	.
.	12r	.	.	.	.
[4e-> [4c-> [4A->^\	12r	[4aa- [4ee- [4cc- [4a-^/	4ryy	.	.
.	(12E-L 12EE-/	.	.	.	.
.	12EE-J 12EEE-/)	.	.	.	.
*v	*v	*	*	*	*
=70	=70	=70	=70	=70
*^	*	*	*	*
!!LO:TX:a:i:t=riten.
!	!	!	!	!	!LO:HP:a
8.e->]L 8.c->] 8.A->\]	(12e-L 12E-\	8.aa-]L 8.ee-] 8.cc-] 8.a-/]	8.ryy	>	>
.	12E-J 12EE-\)	.	.	.	.
.	12rD	.	.	.	]
16Gn>\Jk	.	16ggnJk 16gn/	16ryy	.	.
!	!	!LO:TX:b:i:t=m.s.	!	!LO:HP:a	!LO:DY:b:t=%s dolciss.
12r	4ryy	8gg-X 8ee- 8cc- 8g-X/)	(8.G-X\L	<	p
(12EE-/L	.	.	.	.	.
.	.	8r	.	.	.
12EEE-/J)	.	.	.	.	.
!	!	!LO:TX:b:i:t=m.d.	!	!	!
.	.	.	16A-\Jk	[	.
!	!	!	!	!LO:HP:a	!
(12E-/L	4ryy	(8.g-/L	2c-\)	<	.
12EE-/J)	.	.	.	.	.
12r	.	.	.	.	.
.	.	16a-/Jk	.	.	.
!	!	!LO:TX:b:i:t=ral-len-tan-do:dur=3q:ext=cd:problem:text with extention lines	!	!	!
N&(8.GG-/L	12GG-\L	4cc-/)	.	[<	.
.	12EEE-\J	.	.	.	.
.	12r	.	.	.	.
!LO:TX:t=P:problem:dashed line	!	!	!	!	!
16AA-/Jk	.	.	.	.	.
.	.	.	.	[	.
*v	*v	*	*	*v	*v
*	*clefF4	*	*
!!LO:LB:g=original
=71	=71	=71	=71
*^	*	*	*^
!	!	!	!	!LO:HP:a	!
2ryy	(12E-/L	(<8.G-/L	4C-\&N)	<	.
!	!	!	!	!	!LO:HP:a:t=dimin.
.	12EE-/J)	.	.	.	>
.	12r	.	.	.	.
.	.	16A-/Jk)	.	[	.
.	(12EE-/L	8.g-/L	4c-\	.	.
.	12EEE-/J)	.	.	.	.
.	12r	.	.	.	.
!	!	!LO:TX:t=P:problem:dashed line	!	!	!
.	.	16a-/Jk	.	.	.
*	*	*clefG2	*	*	*
!	!	!LO:TX:b:i:t=ten.	!	!	!
!	!	!LO:TX:a:i:t=ten.	!	!	!
2cc-> 2g-> 2e->^\	12r	2ggg- 2eee- 2ccc- 2gg-/	2ryy	.	.
!	!	!LO:TX:b:i:t=dolce	!	!	!LO:DY:b=2
.	(12E-/L	.	.	.	pp
.	12EE-/J)	.	.	.	.
.	(12EE-/L	.	.	.	.
.	12EEE-/J)	.	.	.	.
.	12r	.	.	.	.
=72	=72	=72	=72	=72	=72
!	!	!	!	!LO:DY:b	!
2ee-> 2cc-> 2g-> 2e->~\	12r	(2ggg- 2eee- 2ccc- 2gg-~/	2ryy	pp	.
!	!	!	!	!	!LO:DY:b=2
.	(12E-/L	.	.	<	pp
.	12EE-/J)	.	.	.	.
.	(12EE-/L	.	.	.	.
.	12EEE-/J)	.	.	.	.
.	12r	.	.	.	.
2ff-> 2cc-> 2gn> 2d->~\	12r	2gggn 2fff- 2ccc- 2ggn~/	2ryy	.	.
!	!	!	!	!	!LO:DY:b=2
.	(12E-/L	.	.	.	pp
.	12EE-/J)	.	.	.	.
.	(12EE-/L	.	.	.	.
.	12EEE-/J)	.	.	.	.
.	12r	.	.	[[	.
=73	=73	=73	=73	=73	=73
!	!	!	!	!	!LO:DY:b=2
2ee-> 2cc-> 2gn> 2d->\	12r	2gggn 2eee- 2ccc- 2ggn/)	2ryy	>	ppp
.	(12E-/L	.	.	.	.
.	12EE-/J)	.	.	.	.
.	(12EE-/L	.	.	.	.
.	12EEE-/J)	.	.	.	.
.	12r	.	.	.	.
!	!	!LO:TX:b:i:t=riten.	!	!	!
(4.b->~\	2ryy	(4.bb-~/	4.ryy	.	.
!	!	!LO:TX:a:i:t=(espr.)	!	!	!
8a->\)	.	8aa-/)	8ryy	]	.
*v	*v	*	*	*	*
*	*v	*v	*	*
=74	=74	=74	=74
*^	*	*	*
*tuplet	*	*	*	*
!	!LO:TUP:b:problem:klamra łukowa	!	!LO:DY:b	!LO:DY:b=2
2e- 2c- 2A- 2E-~/	6rEE	2aa- 2ee- 2cc- 2a-~\	pp >	pp
.	6AA-\	.	.	.
.	6AAA-\	.	.	.
!	!LO:TUP:b:problem:klamra łukowa	!	!	!
2e- 2c- 2A- 2E-~/	6rEE	2aa- 2ee- 2cc- 2a-~\	]	.
!	!	!	!LO:HP:t=dimin.	!
.	6AA-\	.	>	.
.	6AAA-\	.	.	.
*	*	*	*v	*v
=75	=75	=75	=75
2.e- 2.c- 2.A- 2.E-;/	2.r	2.aa- 2.ee- 2.cc- 2.a-;\	ppp
*v	*v	*	*
!LO:TX:b:i:rj:t=attacca	!	!
==	==	==
*-	*-	*-
!!!system-decoration: {(g1)}
!!!RDF**kern: i = editorial accidental
!!!RDF**kern: > = above
!!!RDF**kern: < = below
!!!RDF**kern: N = linked
!!!RDF**dynam: > = "dim.", fontstyle= "italic"
!!!ENC: Anastazja Marusiak
!!!EED: Katarzyna Serwa
!!!END: 2023-09-06
!!!EEV: 2023-10-09
